X:288
T: WACH AUF MEINS HERZENS SCHOENE
N: Z0286
O: Europa, Mitteleuropa, Deutschland
R: Lyrisches Lied, Romanze
M: 2/4
L: 1/16
K: F
F2 | c2c2c2c2 | f4c2
c2 | d2c2B2c2 | A4z2
F2 | c2c2c2c2 | f4c2
c2 | d2c2B2c2 | A4z2
c2 | f2eed2c2 | d4c2
c2 | d2d2e2e2 | f2f2g2
c2 | f2d2c2B2 | G4F2

@@@ Tune index: 10046
